truck-delivery-outline.svg

<svg fill="currentColor" viewBox="0 0 24 24"><path d="M18 18.5c.83 0 1.5-.67 1.5-1.5s-.67-1.5-1.5-1.5-1.5.67-1.5 1.5.67 1.5 1.5 1.5m1.5-9H17V12h4.46zM6 18.5c.83 0 1.5-.67 1.5-1.5s-.67-1.5-1.5-1.5-1.5.67-1.5 1.5.67 1.5 1.5 1.5M20 8l3 4v5h-2c0 1.66-1.34 3-3 3s-3-1.34-3-3H9c0 1.66-1.34 3-3 3s-3-1.34-3-3H1V6c0-1.11.89-2 2-2h14v4zM3 6v9h.76c.55-.61 1.35-1 2.24-1s1.69.39 2.24 1H15V6zm7 1 3.5 3.5L10 14v-2.5H5v-2h5z"/></svg>

<svg  viewBox="0 0 24 24" fill="currentColor"><path  d="M18 18.5C18.83 18.5 19.5 17.83 19.5 17C19.5 16.17 18.83 15.5 18 15.5C17.17 15.5 16.5 16.17 16.5 17C16.5 17.83 17.17 18.5 18 18.5M19.5 9.5H17V12H21.46L19.5 9.5M6 18.5C6.83 18.5 7.5 17.83 7.5 17C7.5 16.17 6.83 15.5 6 15.5C5.17 15.5 4.5 16.17 4.5 17C4.5 17.83 5.17 18.5 6 18.5M20 8L23 12V17H21C21 18.66 19.66 20 18 20C16.34 20 15 18.66 15 17H9C9 18.66 7.66 20 6 20C4.34 20 3 18.66 3 17H1V6C1 4.89 1.89 4 3 4H17V8H20M3 6V15H3.76C4.31 14.39 5.11 14 6 14C6.89 14 7.69 14.39 8.24 15H15V6H3M10 7L13.5 10.5L10 14V11.5H5V9.5H10V7Z"/></svg>
